X:1
T:Etude 2, Op 176
T:Etude 2, Op 176
T:Jean-Baptiste Duvernoy c. 1802 – c. 1880 
C:J.B.Duvernoy
%%score { 1 | 2 }
L:1/8
Q:1/4=100
M:4/4
K:C
V:1 treble nm="Piano" snm="Pno."
V:2 bass 
V:1
!p!"^Moderato" (e2 c2 | g2 f2 d2 B2) | (a2 g2 e2 c2 | g2 f2 e2 c2 | d4) (e2 c2 | g2 f2 d2 B2) | %6
 (a2 g2 e2 c2 | B2 d2 c2 A2 | G4)!mf! g2 g2 | (B2 c2 d2 e2 | f2 d2 B2) (B2 | f2 e2 d2 c2 | %12
 B4) g2 g2 | (B2 c2 d2 e2 | f2 d2 B2) (B2 | c2 B2 c2 e2 | d2) z2!p! (efge | gfef defd) | %18
 (ag^fg e=fge) | (gfed) (fedc) | (ed^cd) (efge | gfef defd) | (ag^fg e=fge | gfed cBAB | c4) z4 |] %25
V:2
!pp! (C,2 G,2 | D,2 G,2 F,2 G,2) | (E,2 G,2 C,2 G,2 | D,2 G,2 C,2 G,2) | (G,,2 G,2) (C,2 G,2 | %5
 D,2 G,2 F,2 G,2) | (E,2 G,2 C,2 G,2 | D,2 B,2 D,2 C2 | [G,B,]4) z4 |[K:treble] (F2 E2 D2 C2 | %10
 B,4 G2) (G2 | B,2 C2 D2 E2 | F2 D2 B,4) | (F2 E2 D2 C2 | B,4 G2) F2 | (E2 G2 E2 C2 | %16
 G2) z2[K:bass] (C,2 G,2 | D,2 G,2 F,2 G,2) | (E,2 G,2 C,2 G,2) | (D,2 G,2 C,2 G,2) | %20
 (G,,2 G,2 C,2 G,2) | (D,2 G,2 F,2 G,2) | (E,2 G,2 C,2 G,2) | (D,2 F,2 G,2 G,,2 | [C,E,]4) z4 |] %25

